src/4-icons/point.svg

<svg width="260" height="260" viewBox="0 0 260 260" fill="none" xmlns="http://www.w3.org/2000/svg">
<path d="M106.353 183.829L101.845 188.328C100.32 189.853 98.509 191.064 96.516 191.889C94.5229 192.715 92.3867 193.14 90.2294 193.14C88.0721 193.14 85.9359 192.715 83.9429 191.889C81.9499 191.064 80.1391 189.853 78.6139 188.328C77.0881 186.802 75.8778 184.992 75.0521 182.999C74.2263 181.006 73.8013 178.869 73.8013 176.712C73.8013 174.555 74.2263 172.419 75.0521 170.425C75.8778 168.432 77.0881 166.622 78.6139 165.096L95.6074 148.103" fill="white"/>
<path d="M106.353 183.829L101.845 188.328C100.32 189.853 98.509 191.064 96.516 191.889C94.5229 192.715 92.3867 193.14 90.2294 193.14C88.0721 193.14 85.9359 192.715 83.9429 191.889C81.9499 191.064 80.1391 189.853 78.6139 188.328V188.328C77.0881 186.802 75.8778 184.992 75.0521 182.999C74.2263 181.006 73.8013 178.869 73.8013 176.712C73.8013 174.555 74.2263 172.419 75.0521 170.425C75.8778 168.432 77.0881 166.622 78.6139 165.096L95.6074 148.103" stroke="black" stroke-width="8" stroke-linecap="round" stroke-linejoin="round"/>
<path d="M215.221 247.645L208.754 211.389L171.768 90.4952L118.288 47.1919L77.4442 12.7351C74.8002 10.5034 71.448 9.28577 67.9881 9.30042C64.5281 9.31508 61.1864 10.561 58.5614 12.8151V12.8151C55.6287 15.3324 53.8151 18.9108 53.519 22.7643C53.2228 26.6179 54.4684 30.4314 56.982 33.3672L125.466 105.539L126.675 114.536" stroke="black" stroke-width="8" stroke-linecap="round" stroke-linejoin="round"/>
<path d="M92.1585 146.604L84.0617 160.818C81.9098 164.608 78.3411 167.387 74.1402 168.546C69.9393 169.704 65.4502 169.147 61.6603 166.996V166.996C57.8702 164.842 55.0905 161.271 53.9321 157.069C52.7737 152.866 53.3314 148.376 55.4827 144.584L60.9406 134.998L80.2331 101.011C81.8077 98.2456 84.1465 95.9929 86.9691 94.5231C89.7917 93.0532 92.9784 92.4287 96.147 92.7244L114.95 94.4737" stroke="black" stroke-width="8" stroke-linecap="round" stroke-linejoin="round"/>
<path d="M143.759 247.645L96.0572 194.465L64.8592 122.203C63.8582 119.888 63.7777 117.279 64.634 114.907C65.4902 112.535 67.2188 110.579 69.4674 109.438C72.062 108.119 74.8912 107.325 77.793 107.102C80.6948 106.878 83.6123 107.229 86.3783 108.134C89.1444 109.039 91.7047 110.481 93.9127 112.377C96.1207 114.274 97.933 116.587 99.2459 119.184L110.152 140.786L134.632 148.683" fill="white"/>
<path d="M143.759 247.645L96.0572 194.465L64.8592 122.203C63.8582 119.888 63.7777 117.279 64.634 114.907C65.4902 112.535 67.2188 110.579 69.4674 109.438C72.062 108.119 74.8912 107.325 77.793 107.102C80.6948 106.878 83.6123 107.229 86.3783 108.134C89.1444 109.039 91.7047 110.481 93.9127 112.377C96.1207 114.274 97.933 116.587 99.2459 119.184L110.152 140.786L134.632 148.683" stroke="black" stroke-width="8" stroke-linecap="round" stroke-linejoin="round"/>
</svg>

<svg width="260" height="260" fill="none" xmlns="http://www.w3.org/2000/svg"><path d="m106.353 183.829-4.508 4.499a16.42 16.42 0 0 1-11.616 4.812 16.42 16.42 0 0 1-11.615-4.812 16.43 16.43 0 0 1-4.813-11.616 16.43 16.43 0 0 1 4.813-11.616l16.993-16.993" fill="#fff"/><path d="m106.353 183.829-4.508 4.499a16.42 16.42 0 0 1-11.616 4.812 16.42 16.42 0 0 1-11.615-4.812v0a16.43 16.43 0 0 1-4.813-11.616 16.43 16.43 0 0 1 4.813-11.616l16.993-16.993m119.614 99.542-6.467-36.256-36.986-120.894-53.48-43.303-40.844-34.457a14.565 14.565 0 0 0-18.883.08v0a14.584 14.584 0 0 0-1.579 20.552l68.484 72.172 1.209 8.997" stroke="#000" stroke-width="8" stroke-linecap="round" stroke-linejoin="round"/><path d="m92.159 146.604-8.097 14.214a16.434 16.434 0 0 1-22.402 6.178v0a16.446 16.446 0 0 1-6.177-22.412l5.458-9.586 19.292-33.987a16.545 16.545 0 0 1 15.914-8.287l18.803 1.75" stroke="#000" stroke-width="8" stroke-linecap="round" stroke-linejoin="round"/><path d="m143.759 247.645-47.702-53.18-31.198-72.262a9.907 9.907 0 0 1 4.608-12.765 22.132 22.132 0 0 1 29.779 9.746l10.906 21.602 24.48 7.897" fill="#fff"/><path d="m143.759 247.645-47.702-53.18-31.198-72.262a9.907 9.907 0 0 1 4.608-12.765 22.132 22.132 0 0 1 29.779 9.746l10.906 21.602 24.48 7.897" stroke="#000" stroke-width="8" stroke-linecap="round" stroke-linejoin="round"/></svg>
